X:334
T:Silver Spear
Z: id:dc-reel-311
M:C
L:1/8
K:D Major
FAA2 BAFA|dfed BcdA|FAA2 BAFA|dfed B2A2|!
FAA2 BAFA|dfed Bdef|g3e f3e|dfed B2A2:|!
f2af bfaf|gfed Bcde|f2af bfaf|gfed B2A2|!
f2af bfaf|gfed Bdef|g3e f3e|dfed B2A2:|!

